X: 1
T: Daisy Rose
M: 4/4
L: 1/8
R: reel
K: Dmaj
AG|:FAd(d d)AFA|GBd(d d)BGB|FAd(d d)Adf|edcB AaAG|
FAd(d d)AFA|GBd(d d)BGB|Acef gecd|1 eddc dBAG:|2 eddc d2 fg||
aAAg AAfA|edcB AFDF|GBdD FAdf|edcB Aafg|
aAAg AAfA|edcB AFDF|GBed ceag |1 fdec d2 fg:|2 fdec d2 AG|
